assets/svg/vsCode.svg

<svg viewBox="0 0 292.27 292.34" xmlns="http://www.w3.org/2000/svg"><path d="m222.18 4.44-116.18 116.87-74.29-58.58-27.71 14.39-.27 145.38 29.06 14.92 73.35-57.49 117.27 115.68 71.36-29.77.23-233.84zm-190.11 191.81-.22-91.61 45.07 45.76zm190.93 14.81-77.09-60 77.26-62.53z" fill="#fff" stroke="#000" stroke-miterlimit="10" transform="translate(-3.23 -3.86)"/></svg>

<svg id="Layer_1" data-name="Layer 1" xmlns="http://www.w3.org/2000/svg" viewBox="0 0 292.27 292.34"><defs><style>.cls-1{fill:#fff;stroke:#000;stroke-miterlimit:10;}</style></defs><path class="cls-1" d="M222.18,4.44,106,121.31,31.71,62.73,4,77.12,3.73,222.5l29.06,14.92,73.35-57.49L223.41,295.61l71.36-29.77L295,32ZM32.07,196.25l-.22-91.61L76.92,150.4ZM223,211.06l-77.09-60,77.26-62.53Z" transform="translate(-3.23 -3.86)"/></svg>
